X: 37
T:Harvest Home
M:C|
L:1/8
R:Hornpipe
K:D
AF | DAFA DAFA | defe dcBA  | eAfA gAfA | (3efe (3dcB |
(3ABA (3GFE | DAFA DAFA | defe dcBA | (3efg fa gece |
 d2 {e}dc d2 :||: cd | eA (3AAA fA (3AAA | gA (3AAA fA (3AAA |
(3efg fa (g{a}g{f}g)f | edcB AGFE | DAFA DAFA | defe dcBA |
 (3efg fga {ga}gece | d2 {e}dc d2 :||
